X:2
T:Green Dolphin Street
C:Bronislau Kaper
L:1/4
M:C
I:linebreak $
K:C
"C6" c2 c2 |"C" z2 (3B G E |"Cm" _B4 | z4 |$"D7" A2 A2 |"Db7" z2 (3_A F _D |"C" G4 |
"C#o" z4 Ox/||$"Dm" z G D E |"Db7" F G _A _B |"C" G2 G2 |"C6" z4 ||$[K:Eb]"Fm" z B F G |
"E7" A B =B ^c |"Eb" B2 B2 ||[K:C]"Dm" z2"Db7" z "_D.C. al Coda" B ||$Ox/"Dm" z G"Dm/C" D E |
"Bø" F G"Bb7" _A e |"Am" d2"Am/G" c2 |$"Gbø" C D"F7" _E B |"Em" A2"Eb7" G2 |
"Dm" z G"Db7" G G |"C" G4 |"C6" z4 |]]

